public/assets/imgs/page/homepage8/trip.svg

<svg width="25" height="24" viewBox="0 0 25 24" fill="none" xmlns="http://www.w3.org/2000/svg">
<path d="M18.7536 4.0212L5.59821 5.56378C5.07961 5.62555 4.59273 5.84578 4.20395 6.19445C3.81516 6.54312 3.54338 7.00325 3.42567 7.51211C3.30796 8.02097 3.35005 8.5538 3.54619 9.03795C3.74234 9.52209 4.08299 9.934 4.52171 10.2175L8.71266 12.9045C8.81146 12.9711 8.896 13.0567 8.96136 13.1564C9.02671 13.256 9.07157 13.3677 9.09331 13.4849L9.88791 18.3994C9.95607 18.817 10.1275 19.2109 10.3866 19.5455C10.6457 19.88 10.9843 20.1445 11.3715 20.3149C11.7588 20.4853 12.1825 20.5563 12.6041 20.5213C13.0257 20.4863 13.4318 20.3465 13.7856 20.1146C14.1147 19.894 14.3904 19.6026 14.5923 19.2616L21.2488 7.81023C21.4842 7.40296 21.6019 6.93825 21.5886 6.46796C21.5753 5.99766 21.4316 5.54028 21.1735 5.14683C20.9155 4.75339 20.5532 4.43936 20.1272 4.23978C19.7011 4.0402 19.228 3.96292 18.7607 4.01656L18.7536 4.0212ZM19.7811 6.96097L13.1245 18.4124C13.0354 18.5602 12.9033 18.6772 12.7458 18.7477C12.5883 18.8182 12.413 18.8389 12.2434 18.8069C12.0738 18.775 11.918 18.6919 11.7969 18.5689C11.6758 18.4459 11.5952 18.2889 11.5658 18.1188L10.7642 13.2089C10.7528 13.1438 10.7376 13.0794 10.7186 13.0161L15.5938 9.81862C15.7815 9.69554 15.9125 9.50293 15.9582 9.28317C16.0038 9.0634 15.9603 8.83448 15.8372 8.64677C15.7141 8.45906 15.5214 8.32793 15.3017 8.28222C15.0819 8.23652 14.8531 8.27999 14.6654 8.40307L9.79024 11.6005C9.73969 11.5579 9.68669 11.5183 9.63151 11.4819L5.44764 8.79032C5.30331 8.69566 5.19136 8.55913 5.12679 8.39905C5.06223 8.23897 5.04814 8.06299 5.08641 7.8947C5.12469 7.72641 5.2135 7.57386 5.34093 7.45751C5.46837 7.34115 5.62834 7.26656 5.79939 7.24372L18.9548 5.70114C19.1097 5.68452 19.2661 5.71096 19.4069 5.77756C19.5477 5.84416 19.6675 5.94832 19.7529 6.07858C19.8383 6.20885 19.8862 6.36015 19.8911 6.51584C19.8961 6.67153 19.858 6.82556 19.7811 6.96097Z" fill="#004B52"/>
</svg>

<svg xmlns="http://www.w3.org/2000/svg" width="25" height="24" fill="none"><path fill="#004B52" d="M18.754 4.021 5.598 5.564a2.538 2.538 0 0 0-1.076 4.653l4.19 2.688a.897.897 0 0 1 .381.58l.795 4.914a2.54 2.54 0 0 0 3.898 1.716c.329-.221.604-.512.806-.853L21.25 7.81a2.539 2.539 0 0 0-2.488-3.793l-.007.004Zm1.027 2.94-6.656 11.451a.846.846 0 0 1-1.56-.293l-.8-4.91a1.677 1.677 0 0 0-.046-.193l4.875-3.197a.846.846 0 0 0-.929-1.416L9.79 11.6a1.693 1.693 0 0 0-.158-.118L5.448 8.79a.847.847 0 0 1 .351-1.546L18.955 5.7a.846.846 0 0 1 .826 1.26Z"/></svg>
